package/converter/svg/light/sd-cards.svg

<svg xmlns="http://www.w3.org/2000/svg" viewBox="0 0 448 512"><!-- Font Awesome Pro 6.0.0-alpha2 by @fontawesome - https://fontawesome.com License - https://fontawesome.com/license (Commercial License) --><path d="M240 64C231.164 64 224 71.162 224 80V144C224 152.836 231.164 160 240 160S256 152.836 256 144V80C256 71.162 248.836 64 240 64ZM304 64C295.164 64 288 71.162 288 80V144C288 152.836 295.164 160 304 160S320 152.836 320 144V80C320 71.162 312.836 64 304 64ZM368 64C359.164 64 352 71.162 352 80V144C352 152.836 359.164 160 368 160S384 152.836 384 144V80C384 71.162 376.836 64 368 64ZM336 480H96C60.654 480 32 451.346 32 416V112C32 103.164 24.836 96 16 96S0 103.164 0 112V416C0 469.02 42.98 512 96 512H336C344.836 512 352 504.836 352 496S344.836 480 336 480ZM384 0H234.51C217.535 0 201.258 6.742 189.254 18.744L98.746 109.254C86.742 121.256 80 137.535 80 154.51V368C80 403.199 108.801 432 144 432H384C419.199 432 448 403.199 448 368V64C448 28.799 419.199 0 384 0ZM416 368C416 385.6 401.6 400 384 400H144C126.4 400 112 385.6 112 368V154.504C112 146.018 115.371 137.879 121.373 131.877L211.877 41.373C217.879 35.371 226.018 32 234.504 32H384C401.6 32 416 46.4 416 64V368Z"/></svg>

<svg xmlns="http://www.w3.org/2000/svg" viewBox="0 0 448 512"><!--! Font Awesome Pro 6.6.0 by @fontawesome - https://fontawesome.com License - https://fontawesome.com/license (Commercial License) Copyright 2024 Fonticons, Inc. --><path d="M416 368c0 17.7-14.3 32-32 32l-240 0c-17.7 0-32-14.3-32-32l0-213.5c0-8.5 3.4-16.6 9.4-22.6l90.5-90.5c6-6 14.1-9.4 22.6-9.4L384 32c17.7 0 32 14.3 32 32l0 304zM448 64c0-35.3-28.7-64-64-64L234.5 0c-17 0-33.3 6.7-45.3 18.7L98.7 109.3c-12 12-18.7 28.3-18.7 45.3L80 368c0 35.3 28.7 64 64 64l240 0c35.3 0 64-28.7 64-64l0-304zM240 64c-8.8 0-16 7.2-16 16l0 64c0 8.8 7.2 16 16 16s16-7.2 16-16l0-64c0-8.8-7.2-16-16-16zm64 0c-8.8 0-16 7.2-16 16l0 64c0 8.8 7.2 16 16 16s16-7.2 16-16l0-64c0-8.8-7.2-16-16-16zm64 0c-8.8 0-16 7.2-16 16l0 64c0 8.8 7.2 16 16 16s16-7.2 16-16l0-64c0-8.8-7.2-16-16-16zM32 112c0-8.8-7.2-16-16-16s-16 7.2-16 16L0 384c0 70.7 57.3 128 128 128l240 0c8.8 0 16-7.2 16-16s-7.2-16-16-16l-240 0c-53 0-96-43-96-96l0-272z"/></svg>
